zenario/admin/images/icon-trashed-content.svg

<?xml version="1.0" encoding="iso-8859-1"?>
<!-- Generator: Adobe Illustrator 21.0.2, SVG Export Plug-In . SVG Version: 6.00 Build 0)  -->
<svg version="1.1" xmlns="http://www.w3.org/2000/svg" xmlns:xlink="http://www.w3.org/1999/xlink" x="0px" y="0px"
	 viewBox="0 0 16.284 20" style="enable-background:new 0 0 16.284 20;" xml:space="preserve">
<g id="icon-trashed-content">
	<g>
		<g>
			<g>
				<polygon style="fill:#A77A4B;" points="0.164,0.164 11.202,0.164 16.12,5.027 16.12,19.836 0.164,19.836 				"/>
			</g>
			<g>
				<path style="fill:#7E5428;" d="M16.284,20H0V0h11.27l5.015,4.959V20z M0.328,19.672h15.628V5.096l-4.822-4.768H0.328V19.672z"/>
			</g>
		</g>
		<g>
			<polygon style="fill:#E1C3A3;" points="15.929,5.018 11.211,0.41 11.184,5.027 			"/>
			<path style="fill:#7E5428;" d="M11.074,5.137l0.029-4.985l5.093,4.975L11.074,5.137z M11.319,0.668l-0.025,4.25l4.367-0.008
				L11.319,0.668z"/>
		</g>
		<g>
			<polygon style="fill:#7E5428;" points="15.792,5.301 10.984,5.301 10.984,0.273 11.202,0.273 11.202,5.082 15.792,5.082 			"/>
		</g>
		<g>
			<polygon style="fill:#BA8B60;" points="0.273,19.8 0.273,0.492 10.984,0.492 10.984,0.71 0.492,0.71 0.492,19.581 15.592,19.563 
				15.574,5.383 15.792,5.382 15.811,19.781 15.702,19.781 			"/>
		</g>
		<g>
			<g>
				<path style="fill-rule:evenodd;clip-rule:evenodd;fill:#503006;" d="M6.651,6.791c0.929,0,1.859,0,2.789,0
					c0,0.207,0,0.413,0,0.62c0.705,0,1.411,0,2.117,0c0,0.379,0,0.757,0,1.136c-2.341,0-4.682,0-7.022,0c0-0.379,0-0.757,0-1.136
					c0.705,0,1.412,0,2.117,0C6.651,7.204,6.651,6.998,6.651,6.791z"/>
			</g>
			<g>
				<path style="fill-rule:evenodd;clip-rule:evenodd;fill:#503006;" d="M4.792,9.579c2.169,0,4.337,0,6.506,0
					c-0.121,2.375-0.241,4.751-0.362,7.126c-1.944,0-3.89,0-5.835,0C4.999,14.33,4.895,11.954,4.792,9.579z"/>
			</g>
		</g>
	</g>
</g>
<g id="Layer_1">
</g>
</svg>

<?xml version="1.0" encoding="UTF-8" standalone="no"?>
<!DOCTYPE svg PUBLIC "-//W3C//DTD SVG 1.1//EN" "http://www.w3.org/Graphics/SVG/1.1/DTD/svg11.dtd">
<svg width="100%" height="100%" viewBox="0 0 17 20" version="1.1" xmlns="http://www.w3.org/2000/svg" xmlns:xlink="http://www.w3.org/1999/xlink" xml:space="preserve" xmlns:serif="http://www.serif.com/" style="fill-rule:evenodd;clip-rule:evenodd;stroke-linejoin:round;stroke-miterlimit:2;">
    <g id="icon-trashed-content">
        <g>
            <g>
                <g>
                    <rect x="0.164" y="0.164" width="15.956" height="19.672" style="fill:rgb(167,122,75);fill-rule:nonzero;"/>
                </g>
                <g>
                    <path d="M16.285,20L0,20L0,0L16.284,0L16.285,4.959L16.285,20ZM0.328,19.672L15.956,19.672L15.956,0.328L0.328,0.328L0.328,19.672Z" style="fill:rgb(126,84,40);fill-rule:nonzero;"/>
                </g>
            </g>
            <g>
                <path d="M0.273,19.8L0.273,0.492L15.702,0.492L15.702,0.71L0.492,0.71L0.492,19.581L15.592,19.563L15.568,0.501L15.786,0.5L15.811,19.781L15.702,19.781L0.273,19.8Z" style="fill:rgb(186,139,96);fill-rule:nonzero;"/>
            </g>
            <g transform="matrix(1,0,0,1,0.096,-1.748)">
                <g>
                    <path d="M6.651,6.791L9.44,6.791L9.44,7.411L11.557,7.411L11.557,8.547L4.535,8.547L4.535,7.411L6.652,7.411C6.651,7.204 6.651,6.998 6.651,6.791Z" style="fill:rgb(80,48,6);"/>
                </g>
                <g>
                    <path d="M4.792,9.579L11.298,9.579C11.177,11.954 11.057,14.33 10.936,16.705L5.101,16.705C4.999,14.33 4.895,11.954 4.792,9.579Z" style="fill:rgb(80,48,6);"/>
                </g>
            </g>
        </g>
    </g>
</svg>
